assets/images/icons/key-info-05.svg

<svg width="32" height="32" viewBox="0 0 32 32" fill="none" xmlns="http://www.w3.org/2000/svg">
<g clip-path="url(#clip0_211_3666)">
<path opacity="0.1" d="M0.223155 23.1618C-0.0589054 20.752 -0.098086 18.3874 0.248062 16.248C0.673696 13.6174 1.78493 10.6909 2.99894 8.07362C5.37163 2.95839 9.61911 1.16885 14.7912 0.362065C22.0007 -0.762522 31.9372 0.362091 32 9.08714C31.6383 12.2073 29.2517 20.8815 21.1951 21.5434C18.5313 21.7622 17.5348 24.4378 16.3612 27.5006C13.2729 35.5602 1.25575 31.9835 0.223155 23.1618Z" fill="#7FB51F"/>
<path d="M6.39672 19.5158C6.42484 19.0198 6.54391 18.5417 6.74594 18.0983C6.54625 17.637 6.42438 17.1341 6.39672 16.6072C5.65516 17.1439 5.17188 18.0167 5.17188 19.0001C5.17188 19.1759 5.18734 19.3484 5.21687 19.5158H6.39672Z" fill="#7FB51F"/>
<path d="M9.35031 15.9009C9.82656 14.8185 10.772 13.9884 11.9205 13.6645C11.5614 13.5084 11.1658 13.4221 10.75 13.4221C9.12156 13.4221 7.79688 14.7468 7.79688 16.3752C7.79688 16.4845 7.80297 16.5918 7.81469 16.6977C8.26281 16.3227 8.78875 16.0513 9.35031 15.9009Z" fill="#7FB51F"/>
<path d="M10.442 17.1731C10.4195 17.1726 10.397 17.1721 10.3745 17.1721C9.66664 17.1721 8.98227 17.4679 8.49711 17.9835C8.09539 18.4101 7.85727 18.9435 7.80664 19.5159H18.474C18.4191 19.2276 18.3901 18.9299 18.3901 18.6252C18.3901 17.5063 18.7909 16.1095 19.4391 14.9592C19.3632 14.9465 19.2863 14.9367 19.208 14.9306C18.8663 14.9034 18.5307 14.9423 18.2087 15.0459C17.7432 14.2734 16.9046 13.7971 15.9995 13.7971C15.0943 13.7971 14.2557 14.2734 13.7902 15.0459C13.4687 14.9423 13.1326 14.9034 12.7909 14.9306C11.5726 15.0271 10.5934 15.9655 10.442 17.1731Z" fill="#7FB51F"/>
<path d="M22.3281 19.0002C22.3281 19.1967 22.3998 19.3771 22.5184 19.5159H23.7316C23.8502 19.3771 23.9219 19.1967 23.9219 19.0002C23.9219 18.561 23.5642 18.2034 23.125 18.2034C22.6858 18.2034 22.3281 18.561 22.3281 19.0002Z" fill="#7FB51F"/>
<path d="M19.9183 19.5159H20.9833C20.943 19.3504 20.9219 19.1779 20.9219 19.0002C20.9219 17.7852 21.91 16.7971 23.125 16.7971C24.34 16.7971 25.3281 17.7852 25.3281 19.0002C25.3281 19.1779 25.307 19.3504 25.2667 19.5159H26.3317C26.4109 19.2323 26.4531 18.9337 26.4531 18.6252C26.4531 16.9673 25.157 13.7971 23.125 13.7971C21.093 13.7971 19.7969 16.9673 19.7969 18.6252C19.7969 18.9337 19.8391 19.2323 19.9183 19.5159Z" fill="#7FB51F"/>
<path d="M27.2969 20.9221H26.5H5.5H4.70312C4.31481 20.9221 4 21.2369 4 21.6252C4 22.0136 4.31481 22.3284 4.70312 22.3284H5.02389L5.99359 24.7523C6.31562 25.5581 7.08437 26.0784 7.95203 26.0784H24.048C24.9156 26.0784 25.6844 25.5581 26.0064 24.7523L26.9761 22.3284H27.2969C27.6852 22.3284 28 22.0136 28 21.6252C28 21.2369 27.6852 20.9221 27.2969 20.9221Z" fill="#7FB51F"/>
<path d="M15.5772 9.7426L15.4155 9.98508C15.2001 10.3082 15.2874 10.7447 15.6105 10.9601C15.7304 11.0401 15.8659 11.0783 15.9999 11.0783C16.2271 11.0783 16.4501 10.9683 16.5855 10.7651L16.7472 10.5226C17.2734 9.73332 17.1684 8.67366 16.4977 8.00288C16.2993 7.80451 16.2682 7.49101 16.4239 7.25757L16.5855 7.01508C16.801 6.69198 16.7136 6.25548 16.3905 6.04004C16.0674 5.82465 15.6309 5.91193 15.4155 6.23504L15.2538 6.47752C14.7276 7.2668 14.8326 8.32646 15.5033 8.99724C15.7018 9.19566 15.7328 9.50916 15.5772 9.7426Z" fill="#7FB51F"/>
<path d="M11.4522 10.8676L11.2905 11.1101C11.0751 11.4332 11.1624 11.8697 11.4855 12.0851C11.6054 12.1651 11.7409 12.2033 11.8749 12.2033C12.1021 12.2033 12.3251 12.0933 12.4605 11.8901L12.6222 11.6476C13.1484 10.8583 13.0434 9.79866 12.3727 9.12788C12.1743 8.92951 12.1432 8.61601 12.2989 8.38257L12.4605 8.14008C12.676 7.81698 12.5886 7.38048 12.2655 7.16504C11.9424 6.94965 11.5059 7.03693 11.2905 7.36004L11.1288 7.60252C10.6026 8.3918 10.7076 9.45146 11.3783 10.1222C11.5768 10.3207 11.6078 10.6342 11.4522 10.8676Z" fill="#7FB51F"/>
<path d="M19.7022 10.8676L19.5405 11.1101C19.3251 11.4332 19.4124 11.8697 19.7355 12.0851C19.8554 12.1651 19.9909 12.2033 20.1249 12.2033C20.3521 12.2033 20.5751 12.0933 20.7105 11.8901L20.8722 11.6476C21.3984 10.8583 21.2934 9.79866 20.6227 9.12788C20.4243 8.92951 20.3932 8.61601 20.5489 8.38257L20.7105 8.14008C20.926 7.81698 20.8386 7.38048 20.5155 7.16504C20.1924 6.94965 19.7559 7.03693 19.5405 7.36004L19.3788 7.60252C18.8526 8.3918 18.9576 9.45146 19.6283 10.1222C19.8268 10.3207 19.8578 10.6342 19.7022 10.8676Z" fill="#7FB51F"/>
</g>
<defs>
<clipPath id="clip0_211_3666">
<rect width="32" height="32" fill="white"/>
</clipPath>
</defs>
</svg>

<svg xmlns="http://www.w3.org/2000/svg" width="32" height="32" fill="none"><g fill="#7FB51F" clip-path="url(#a)"><path d="M.223 23.162c-.282-2.41-.321-4.775.025-6.914.426-2.63 1.537-5.557 2.75-8.174C5.373 2.958 9.62 1.169 14.792.362 22.001-.763 31.937.362 32 9.087c-.362 3.12-2.748 11.795-10.805 12.456-2.664.22-3.66 2.895-4.834 5.958-3.088 8.06-15.105 4.482-16.138-4.34" opacity=".1"/><path d="M6.397 19.516a4 4 0 0 1 .349-1.418 4.3 4.3 0 0 1-.35-1.49 2.95 2.95 0 0 0-1.18 2.908zM9.35 15.9a4 4 0 0 1 2.57-2.235 2.956 2.956 0 0 0-4.106 3.033A4 4 0 0 1 9.35 15.9m1.092 1.273h-.068a2.6 2.6 0 0 0-1.877.81 2.55 2.55 0 0 0-.69 1.533h10.667a5 5 0 0 1-.084-.89c0-1.12.4-2.517 1.05-3.667a2.64 2.64 0 0 0-1.231.087 2.58 2.58 0 0 0-2.21-1.249c-.905 0-1.743.476-2.209 1.249a2.6 2.6 0 0 0-1-.115 2.57 2.57 0 0 0-2.348 2.242M22.328 19c0 .197.072.377.19.516h1.214A.798.798 0 1 0 22.328 19"/><path d="M19.918 19.516h1.065a2.205 2.205 0 0 1 2.142-2.719 2.205 2.205 0 0 1 2.142 2.719h1.065q.12-.427.121-.89c0-1.659-1.296-4.829-3.328-4.829s-3.328 3.17-3.328 4.828q.001.465.121.89m7.379 1.407H4.703a.703.703 0 0 0 0 1.406h.32l.97 2.424a2.1 2.1 0 0 0 1.959 1.326h16.096c.868 0 1.636-.52 1.958-1.326l.97-2.424h.32a.703.703 0 0 0 0-1.406M15.577 9.743l-.162.242a.703.703 0 1 0 1.17.78l.162-.242a2 2 0 0 0-.25-2.52.59.59 0 0 1-.073-.745l.162-.243a.703.703 0 1 0-1.17-.78l-.162.243a2 2 0 0 0 .25 2.52.59.59 0 0 1 .073.745m-4.125 1.125-.162.242a.703.703 0 1 0 1.17.78l.162-.242a2 2 0 0 0-.25-2.52.59.59 0 0 1-.073-.745l.162-.243a.703.703 0 1 0-1.17-.78l-.162.243a2 2 0 0 0 .25 2.52.59.59 0 0 1 .073.745m8.25 0-.162.242a.703.703 0 1 0 1.17.78l.162-.242a2 2 0 0 0-.25-2.52.59.59 0 0 1-.073-.745l.162-.243a.703.703 0 1 0-1.17-.78l-.162.243a2 2 0 0 0 .25 2.52.59.59 0 0 1 .073.745"/></g><defs><clipPath id="a"><path fill="#fff" d="M0 0h32v32H0z"/></clipPath></defs></svg>
